assets/images/en.svg

<svg height="512pt" viewBox="0 -41 512 512" width="512pt" xmlns="http://www.w3.org/2000/svg"><path d="m407 0h-302c-57.898438 0-105 47.101562-105 105v168.945312c0 57.898438 47.101562 105 105 105h15.582031l36.519531 46.332032c2.847657 3.609375 7.1875 5.714844 11.78125 5.714844s8.9375-2.105469 11.78125-5.714844l36.519532-46.332032h189.816406c57.898438 0 105-47.101562 105-105v-168.945312c0-57.898438-47.101562-105-105-105zm0 0" fill="#6787f5"/><path d="m407 0h-151v378.945312h151c57.898438 0 105-47.101562 105-105v-168.945312c0-57.898438-47.101562-105-105-105zm0 0" fill="#38478a"/><path d="m199.757812 401.054688 17.425782-22.109376zm0 0" fill="#fff"/><path d="m512 123.253906h-126.121094l93.882813-93.882812c-18.886719-18.175782-44.539063-29.371094-72.761719-29.371094h-25.144531l-59.613281 59.613281v-59.613281h-132.480469v59.613281l-59.613281-59.613281h-25.148438c-28.222656 0-53.875 11.195312-72.761719 29.371094l93.882813 93.882812h-126.121094v132.480469h126.121094l-90.359375 90.355469-3.503907 3.503906c18.886719 18.167969 44.53125 29.351562 72.742188 29.351562h15.582031l4.234375 5.371094 63.335938-63.339844-1.027344 57.96875h135.113281v-59.40625l59.210938 59.40625h25.550781c28.089844 0 53.636719-11.085937 72.496094-29.113281l-3.53125-3.546875-90.25-90.550781h126.285156zm0 0" fill="#fff"/><path d="m512 123.253906h-126.121094l93.882813-93.882812c-18.886719-18.175782-44.539063-29.371094-72.761719-29.371094h-25.144531l-59.613281 59.613281v-59.613281h-66.242188v378.945312h66.238281v-59.40625l59.210938 59.40625h25.550781c28.089844 0 53.636719-11.085937 72.496094-29.113281l-3.53125-3.546875-90.25-90.550781h126.285156zm0 0" fill="#c7d3ed"/><path d="m292.238281 153.253906v-153.253906h-72.476562v153.253906h-219.761719v72.480469h219.761719l-2.578125 153.210937h75.054687v-153.210937h219.761719v-72.480469zm0 0" fill="#ff337a"/><path d="m292.238281 153.253906v-153.253906h-36.238281v378.945312h36.238281v-153.210937h219.761719v-72.480469zm0 0" fill="#d1005b"/><path d="m199.757812 133.25v-21.210938l-110.8125-110.8125c-11.363281 1.75-22.132812 5.332032-31.996093 10.429688l121.597656 121.59375zm0 0" fill="#ff337a"/><path d="m455.050781 11.65625c-9.863281-5.097656-20.632812-8.679688-31.996093-10.429688l-110.8125 110.8125v21.210938h21.210937zm0 0" fill="#d1005b"/><path d="m56.976562 367.304688c9.867188 5.09375 20.636719 8.671874 32.003907 10.421874l110.777343-110.78125v-21.210937h-21.210937zm0 0" fill="#ff337a"/><path d="m312.242188 245.734375v21.273437l110.398437 110.773438c11.386719-1.710938 22.183594-5.25 32.074219-10.316406l-121.320313-121.730469zm0 0" fill="#d1005b"/></svg>

<svg height="512pt" viewBox="0 -41 512 512" width="512pt" xmlns="http://www.w3.org/2000/svg"><path d="M407 0H105C47.102 0 0 47.102 0 105v168.945c0 57.899 47.102 105 105 105h15.582l36.52 46.332a15.001 15.001 0 0023.563 0l36.519-46.332H407c57.898 0 105-47.101 105-105V105C512 47.102 464.898 0 407 0zm0 0" fill="#6787f5"/><path d="M407 0H256v378.945h151c57.898 0 105-47.101 105-105V105C512 47.102 464.898 0 407 0zm0 0" fill="#38478a"/><path d="M199.758 401.055l17.426-22.11zm0 0M512 123.254H385.879l93.883-93.883C460.875 11.195 435.222 0 407 0h-25.145l-59.613 59.613V0h-132.48v59.613L130.148 0H105C76.777 0 51.125 11.195 32.238 29.371l93.883 93.883H0v132.48h126.121l-90.36 90.356-3.503 3.504c18.887 18.168 44.531 29.351 72.742 29.351h15.582l4.234 5.371 63.336-63.34-1.027 57.97h135.113v-59.407l59.211 59.406H407c28.09 0 53.637-11.086 72.496-29.113l-3.531-3.547-90.25-90.55H512zm0 0" fill="#fff"/><path d="M512 123.254H385.879l93.883-93.883C460.875 11.195 435.222 0 407 0h-25.145l-59.613 59.613V0H256v378.945h66.238V319.54l59.211 59.406H407c28.09 0 53.637-11.086 72.496-29.113l-3.531-3.547-90.25-90.55H512zm0 0" fill="#c7d3ed"/><path d="M292.238 153.254V0h-72.476v153.254H0v72.48h219.762l-2.578 153.211h75.054v-153.21H512v-72.481zm0 0" fill="#ff337a"/><path d="M292.238 153.254V0H256v378.945h36.238v-153.21H512v-72.481zm0 0" fill="#d1005b"/><path d="M199.758 133.25v-21.21L88.945 1.226a104.169 104.169 0 00-31.996 10.43L178.547 133.25zm0 0" fill="#ff337a"/><path d="M455.05 11.656a104.169 104.169 0 00-31.995-10.43L312.242 112.04v21.211h21.211zm0 0" fill="#d1005b"/><path d="M56.977 367.305a104.307 104.307 0 0032.003 10.422l110.778-110.782v-21.21h-21.211zm0 0" fill="#ff337a"/><path d="M312.242 245.734v21.274L422.641 377.78a104.279 104.279 0 0032.074-10.316l-121.32-121.73zm0 0" fill="#d1005b"/></svg>
